svg/man.svg

<?xml version="1.0" encoding="UTF-8" standalone="no"?>
<svg
   xmlns:dc="http://purl.org/dc/elements/1.1/"
   xmlns:cc="http://creativecommons.org/ns#"
   xmlns:rdf="http://www.w3.org/1999/02/22-rdf-syntax-ns#"
   xmlns:svg="http://www.w3.org/2000/svg"
   xmlns="http://www.w3.org/2000/svg"
   xmlns:sodipodi="http://sodipodi.sourceforge.net/DTD/sodipodi-0.dtd"
   xmlns:inkscape="http://www.inkscape.org/namespaces/inkscape"
   class="ionicon"
   viewBox="0 0 512 512"
   version="1.1"
   id="svg8"
   sodipodi:docname="man.svg"
   inkscape:version="1.0.2 (e86c8708, 2021-01-15)">
  <metadata
     id="metadata14">
    <rdf:RDF>
      <cc:Work
         rdf:about="">
        <dc:format>image/svg+xml</dc:format>
        <dc:type
           rdf:resource="http://purl.org/dc/dcmitype/StillImage" />
      </cc:Work>
    </rdf:RDF>
  </metadata>
  <defs
     id="defs12" />
  <sodipodi:namedview
     pagecolor="#ffffff"
     bordercolor="#666666"
     borderopacity="1"
     objecttolerance="10"
     gridtolerance="10"
     guidetolerance="10"
     inkscape:pageopacity="0"
     inkscape:pageshadow="2"
     inkscape:window-width="689"
     inkscape:window-height="480"
     id="namedview10"
     showgrid="false"
     inkscape:zoom="1.3027344"
     inkscape:cx="256"
     inkscape:cy="256"
     inkscape:window-x="44"
     inkscape:window-y="25"
     inkscape:window-maximized="0"
     inkscape:current-layer="svg8" />
  <title
     id="title2">Man</title>
  <path
     style="color:#000000;font-style:normal;font-variant:normal;font-weight:normal;font-stretch:normal;font-size:medium;line-height:normal;font-family:sans-serif;font-variant-ligatures:normal;font-variant-position:normal;font-variant-caps:normal;font-variant-numeric:normal;font-variant-alternates:normal;font-variant-east-asian:normal;font-feature-settings:normal;font-variation-settings:normal;text-indent:0;text-align:start;text-decoration:none;text-decoration-line:none;text-decoration-style:solid;text-decoration-color:#000000;letter-spacing:normal;word-spacing:normal;text-transform:none;writing-mode:lr-tb;direction:ltr;text-orientation:mixed;dominant-baseline:auto;baseline-shift:baseline;text-anchor:start;white-space:normal;shape-padding:0;shape-margin:0;inline-size:0;clip-rule:nonzero;display:inline;overflow:visible;visibility:visible;isolation:auto;mix-blend-mode:normal;color-interpolation:sRGB;color-interpolation-filters:linearRGB;solid-color:#000000;solid-opacity:1;vector-effect:none;fill:#000000;fill-opacity:1;fill-rule:nonzero;stroke-width:1;stroke-linecap:butt;stroke-linejoin:miter;stroke-miterlimit:4;stroke-dasharray:none;stroke-dashoffset:0;stroke-opacity:1;color-rendering:auto;image-rendering:auto;shape-rendering:auto;text-rendering:auto;enable-background:accumulate;stop-color:#000000;stop-opacity:1;stroke:none;opacity:1"
     d="m 312,56 c 0,30.927946 -25.07205,56 -56,56 -30.92795,0 -56,-25.072054 -56,-56 0,-30.927946 25.07205,-56 56,-56 30.92795,0 56,25.072054 56,56 z"
     id="circle4" />
  <path
     style="color:#000000;font-style:normal;font-variant:normal;font-weight:normal;font-stretch:normal;font-size:medium;line-height:normal;font-family:sans-serif;font-variant-ligatures:normal;font-variant-position:normal;font-variant-caps:normal;font-variant-numeric:normal;font-variant-alternates:normal;font-variant-east-asian:normal;font-feature-settings:normal;font-variation-settings:normal;text-indent:0;text-align:start;text-decoration:none;text-decoration-line:none;text-decoration-style:solid;text-decoration-color:#000000;letter-spacing:normal;word-spacing:normal;text-transform:none;writing-mode:lr-tb;direction:ltr;text-orientation:mixed;dominant-baseline:auto;baseline-shift:baseline;text-anchor:start;white-space:normal;shape-padding:0;shape-margin:0;inline-size:0;clip-rule:nonzero;display:inline;overflow:visible;visibility:visible;isolation:auto;mix-blend-mode:normal;color-interpolation:sRGB;color-interpolation-filters:linearRGB;solid-color:#000000;solid-opacity:1;vector-effect:none;fill:#000000;fill-opacity:1;fill-rule:nonzero;stroke-width:1;stroke-linecap:butt;stroke-linejoin:miter;stroke-miterlimit:4;stroke-dasharray:none;stroke-dashoffset:0;stroke-opacity:1;color-rendering:auto;image-rendering:auto;shape-rendering:auto;text-rendering:auto;enable-background:accumulate;stop-color:#000000;stop-opacity:1;stroke:none;opacity:1"
     d="m 304,128 h -96 c -35.30291,0.10434 -63.89566,28.69709 -64,64 v 107.52 c 0,10.85 8.43,20.08 19.27,20.47 11.32569,0.41366 20.73189,-8.65676 20.73,-19.99 v -99.73 c -0.0528,-4.28115 3.20465,-7.87871 7.47,-8.25 4.62365,-0.307 8.54018,3.36618 8.53,8 V 489 c 0,12.70255 10.29745,23 23,23 12.70255,0 23,-10.29745 23,-23 V 346.34 c -0.0735,-5.35655 3.99409,-9.86444 9.33,-10.34 5.78244,-0.38831 10.68302,4.20455 10.67,10 v 143 c 0,12.70255 10.29745,23 23,23 12.70255,0 23,-10.29745 23,-23 V 200.27 c -0.0528,-4.28115 3.20465,-7.87871 7.47,-8.25 4.62365,-0.307 8.54018,3.36618 8.53,8 v 99.52 c 0,10.85 8.43,20.08 19.27,20.47 11.33356,0.41396 20.74323,-8.66889 20.73,-20.01 V 192 c -0.10434,-35.30291 -28.69709,-63.89566 -64,-64 z"
     id="path6" />
</svg>

<svg xmlns="http://www.w3.org/2000/svg" width="512" height="512" viewBox="0 0 512 512"><title>ionicons-v5-j</title><circle cx="256" cy="56" r="56"/><path d="M304,128H208a64.19,64.19,0,0,0-64,64V299.52c0,10.85,8.43,20.08,19.27,20.47A20,20,0,0,0,184,300V200.27a8.18,8.18,0,0,1,7.47-8.25,8,8,0,0,1,8.53,8V489a23,23,0,0,0,23,23h0a23,23,0,0,0,23-23V346.34A10.24,10.24,0,0,1,255.33,336,10,10,0,0,1,266,346V489a23,23,0,0,0,23,23h0a23,23,0,0,0,23-23V200.27a8.18,8.18,0,0,1,7.47-8.25,8,8,0,0,1,8.53,8v99.52c0,10.85,8.43,20.08,19.27,20.47A20,20,0,0,0,368,300V192A64.19,64.19,0,0,0,304,128Z"/></svg>
